X:4376
L:1/8
M:2/2
K:A
 EFAB c2 B2 | Aceg a2 ga | b2 fg aecA | dcBA dAcA | EFAB c2 (B/c/B) | Aceg a2 gf | efga befg |1 
 a2 ab a4 :|2 a2 ab a2 |: cd | ecac ecac | ecac fcec | fBgB fBgB | fBgB fBcd | ecac ecac | 
 ecac fcec | efga beg |1 a2 ab a2 :|2 a2 ab a4 ||

